resources/icons/20px/ship.svg

<svg width="20" height="20" viewBox="0 0 20 20" fill="none" xmlns="http://www.w3.org/2000/svg">
<path d="M6.84 0.804L6.5 2.5H3.5C3.23479 2.5 2.98043 2.60536 2.7929 2.79289C2.60536 2.98043 2.5 3.23478 2.5 3.5V8.393L0.920005 8.844C0.67257 8.91403 0.462094 9.0776 0.333125 9.30007C0.204156 9.52255 0.166815 9.78648 0.229005 10.036C0.689005 11.856 1.392 14.392 1.93 15.607C1.712 15.619 1.48534 15.625 1.25 15.625C1.16793 15.625 1.08666 15.6412 1.01083 15.6726C0.934999 15.704 0.8661 15.75 0.808063 15.8081C0.750026 15.8661 0.703989 15.935 0.67258 16.0108C0.641171 16.0867 0.625005 16.1679 0.625005 16.25C0.625005 16.3321 0.641171 16.4133 0.67258 16.4892C0.703989 16.565 0.750026 16.6339 0.808063 16.6919C0.8661 16.75 0.934999 16.796 1.01083 16.8274C1.08666 16.8588 1.16793 16.875 1.25 16.875C3.833 16.875 5.518 16.195 6.452 15.729C7.139 16.195 8.332 16.875 10 16.875C11.65 16.875 12.837 16.209 13.528 15.743L13.533 15.746C13.777 15.877 14.133 16.046 14.603 16.214C15.541 16.549 16.924 16.875 18.75 16.875C18.9158 16.875 19.0747 16.8092 19.1919 16.6919C19.3092 16.5747 19.375 16.4158 19.375 16.25C19.375 16.0842 19.3092 15.9253 19.1919 15.8081C19.0747 15.6908 18.9158 15.625 18.75 15.625C18.4273 15.625 18.12 15.6147 17.828 15.594C17.9102 15.4955 17.9727 15.3821 18.012 15.26L19.682 10.092C19.7234 9.96423 19.7387 9.82942 19.7268 9.69562C19.715 9.56182 19.6764 9.43177 19.6132 9.31324C19.55 9.19471 19.4636 9.09013 19.3591 9.00573C19.2546 8.92133 19.1342 8.85884 19.005 8.822L17.5 8.392V3.5C17.5 3.23478 17.3946 2.98043 17.2071 2.79289C17.0196 2.60536 16.7652 2.5 16.5 2.5H13.5L13.16 0.804C13.1147 0.57739 12.9923 0.373461 12.8137 0.226887C12.635 0.0803122 12.4111 0.000139564 12.18 0L7.82 0C7.58891 0.000139564 7.365 0.0803122 7.18634 0.226887C7.00768 0.373461 6.8853 0.57739 6.84 0.804ZM5 7.679V5H8.75V6.607L5 7.679ZM11.25 6.607V5H15V7.68L11.25 6.607ZM6.205 16.95C6.30786 16.8955 6.42379 16.8706 6.53994 16.878C6.65609 16.8855 6.76791 16.9249 6.863 16.992C7.432 17.399 8.46 18.126 10 18.126C11.54 18.126 12.568 17.399 13.137 16.992C13.2427 16.9167 13.3691 16.8762 13.4988 16.876C13.6286 16.8758 13.7551 16.916 13.861 16.991L13.868 16.996L13.913 17.025C13.957 17.053 14.027 17.093 14.123 17.145C14.317 17.249 14.616 17.392 15.023 17.537C15.834 17.827 17.076 18.126 18.75 18.126C18.9158 18.126 19.0747 18.1918 19.1919 18.3091C19.3092 18.4263 19.375 18.5852 19.375 18.751C19.375 18.9168 19.3092 19.0757 19.1919 19.1929C19.0747 19.3102 18.9158 19.376 18.75 19.376C16.924 19.376 15.54 19.05 14.602 18.715C14.2348 18.5852 13.8775 18.4288 13.533 18.247L13.528 18.244C12.837 18.71 11.65 19.376 10 19.376C8.333 19.376 7.139 18.696 6.452 18.23C5.518 18.697 3.833 19.376 1.25 19.376C1.08424 19.376 0.925273 19.3102 0.808063 19.1929C0.690853 19.0757 0.625005 18.9168 0.625005 18.751C0.625005 18.5852 0.690853 18.4263 0.808063 18.3091C0.925273 18.1918 1.08424 18.126 1.25 18.126C3.91 18.126 5.48 17.339 6.205 16.95Z" fill="black"/>
</svg>

<svg xmlns="http://www.w3.org/2000/svg" viewBox="0 0 20 20">
  <path d="M6.84.804 6.5 2.5h-3a1 1 0 0 0-1 1v4.893l-1.58.451a.99.99 0 0 0-.691 1.192c.46 1.82 1.163 4.356 1.701 5.571q-.327.018-.68.018a.625.625 0 0 0 0 1.25c2.583 0 4.268-.68 5.202-1.146.687.466 1.88 1.146 3.548 1.146 1.65 0 2.837-.666 3.528-1.132l.005.003c.244.131.6.3 1.07.468.938.335 2.321.661 4.147.661a.624.624 0 1 0 0-1.25q-.484 0-.922-.031a1 1 0 0 0 .184-.334l1.67-5.168a1 1 0 0 0-.677-1.27l-1.505-.43V3.5a1 1 0 0 0-1-1h-3L13.16.804A1 1 0 0 0 12.18 0H7.82a1 1 0 0 0-.98.804M5 7.679V5h3.75v1.607zm6.25-1.072V5H15v2.68zM6.205 16.95a.63.63 0 0 1 .658.042c.569.407 1.597 1.134 3.137 1.134s2.568-.727 3.137-1.134a.625.625 0 0 1 .724-.001l.007.005.045.029q.066.042.21.12a6.6 6.6 0 0 0 .9.392c.811.29 2.053.589 3.727.589a.624.624 0 1 1 0 1.25c-1.826 0-3.21-.326-4.148-.661a8 8 0 0 1-1.069-.468l-.005-.003c-.691.466-1.878 1.132-3.528 1.132-1.667 0-2.861-.68-3.548-1.146-.934.467-2.619 1.146-5.202 1.146a.625.625 0 1 1 0-1.25c2.66 0 4.23-.787 4.955-1.176"/>
</svg>
